svg/u1f41b.svg

<svg viewBox="0 0 128 128" xmlns="http://www.w3.org/2000/svg">
  <defs/>
  <path d="M32.6,5.38 C32.13,6.24 32.69,7.35 34.76,8.2 C36.82,9.04 41.24,10.92 42.55,12.99 C43.86,15.06 44.52,16.74 43.11,20.22 C41.7,23.7 45.08,24.26 45.08,24.26 C45.08,24.26 48.55,20.13 46.49,14.22 C44.43,8.31 37.29,5.87 36.26,5.49 C35.23,5.1 33.16,4.35 32.6,5.38 Z" fill="#70853C"/>
  <path d="M40.515,96.192 C42.457,98.477 42.243,101.849 40.038,103.723 C37.832,105.597 34.47,105.263 32.528,102.978 C30.587,100.692 30.8,97.32 33.006,95.447 C35.211,93.573 38.573,93.906 40.515,96.192 Z" fill="#70853C"/>
  <path d="M54.286,104.573 C56.987,105.876 58.157,109.045 56.9,111.652 C55.643,114.259 52.433,115.315 49.732,114.012 C47.031,112.709 45.861,109.54 47.118,106.933 C48.376,104.327 51.585,103.27 54.286,104.573 Z" fill="#70853C"/>
  <path d="M73.115,107.769 C76.075,108.248 78.101,110.953 77.638,113.81 C77.176,116.666 74.402,118.594 71.441,118.115 C68.481,117.636 66.455,114.932 66.917,112.075 C67.38,109.218 70.154,107.291 73.115,107.769 Z" fill="#70853C"/>
  <path d="M92.117,111.575 C95.078,112.053 97.103,114.758 96.641,117.615 C96.179,120.472 93.404,122.399 90.444,121.92 C87.483,121.441 85.458,118.737 85.92,115.88 C86.382,113.023 89.157,111.096 92.117,111.575 Z" fill="#70853C"/>
  <path d="M28.94,53.01 A5.14 4.93 0 1 1 18.66,53.01 A5.14 4.93 0 1 1 28.94,53.01 Z" fill="#70853C"/>
  <path d="M29.625,67.923 C29.857,70.636 27.751,73.031 24.923,73.273 C22.094,73.514 19.614,71.51 19.382,68.797 C19.151,66.084 21.256,63.689 24.085,63.448 C26.913,63.207 29.394,65.21 29.625,67.923 Z" fill="#70853C"/>
  <path d="M33.27,82.936 C34.264,85.818 32.785,88.943 29.966,89.915 C27.147,90.888 24.055,89.341 23.06,86.459 C22.066,83.577 23.545,80.452 26.364,79.479 C29.184,78.506 32.275,80.054 33.27,82.936 Z" fill="#70853C"/>
  <path d="M55.41,73.57 C61.6,83.99 80.75,83.85 98.91,89.76 C110.83,93.64 118.2,102.85 116.79,111.44 C115.38,120.03 109.32,122.24 104.12,122 C97.93,121.72 90.46,116.51 84.83,115.24 C79.2,113.97 56.91,111.77 51.04,109.33 C44.28,106.51 35.55,100.46 30.35,91.45 C25.43,82.93 24.44,67.52 24.3,60.48 C24.16,53.44 24.44,46.68 23.88,44.99 C23.32,43.3 13.85,43.22 11.91,34.71 C9.8,25.42 16.56,15.56 26.55,13.73 C36.54,11.9 49.07,16.69 52.45,28.23 C55.83,39.78 50.7,65.65 55.41,73.57 Z" fill="#B7D019"/>
  <path d="M30.72,62.26 C30.08,63.78 31.9,64.91 34.47,65.12 C37.85,65.4 42.94,64.06 46.81,62.59 C50.85,61.05 53.36,59.14 53.36,59.14 L53.29,54.85 C53.29,54.85 50.54,57.52 44.23,59.45 C41.21,60.37 36.91,61.33 35.45,61.37 C34.01,61.41 31.24,61.04 30.72,62.26 Z" fill="#70853C"/>
  <path d="M45.13,4.77 C44.2,5.49 44.78,6.71 45.55,7.77 C46.44,8.99 48.51,11.71 48.6,14.29 C48.66,15.84 48.13,20 47.43,21.14 C46.26,23.06 48.79,24.47 50.06,23.67 C51.61,22.7 52.26,16.34 51.98,13.63 C51.51,8.94 48.84,6.73 47.9,5.79 C47.14,5.05 45.97,4.12 45.13,4.77 Z" fill="#70853C"/>
  <path d="M98.06,89.47 C98.06,89.47 98.25,96.26 97.22,99.84 C96.05,103.92 94.59,107.11 93.84,108.62 C93.52,109.26 93.28,110.17 94.07,110.78 C94.86,111.39 96.23,110.92 96.79,110.08 C97.46,109.07 99.75,105.29 100.78,100.6 C102.17,94.27 101.72,90.7 101.72,90.7 C101.72,90.7 100.36,90.14 99.84,90 C99.33,89.85 98.06,89.47 98.06,89.47 Z" fill="#70853C"/>
  <path d="M81.07,85.25 C81.07,85.25 81.26,90.46 80.08,94.87 C79.28,97.87 77.22,102 76.8,102.85 C76.38,103.69 75.46,105.1 76.33,106.18 C77.58,107.74 79.59,105.85 80.25,104.4 C80.68,103.44 82.65,100.21 83.84,95.62 C85.2,90.36 84.83,86.09 84.83,86.09 L81.07,85.25 Z" fill="#70853C"/>
  <path d="M64.32,80.7 C64.32,80.7 63.83,87.43 62.21,90.46 C59.68,95.2 56.44,97.78 56.02,98.2 C55.6,98.62 54,100.02 55.55,101.11 C56.82,102 58.37,101.11 58.79,100.73 C59.21,100.35 63.81,97.32 66.02,91.39 C67.8,86.6 67.9,82 67.9,82 C67.9,82 66.45,81.44 66.07,81.3 C65.68,81.17 64.32,80.7 64.32,80.7 Z" fill="#70853C"/>
  <path d="M54.49,71.45 C54.49,71.45 50.62,76.05 47.94,77.93 C44.63,80.26 40.53,81.54 39.16,81.68 C37.8,81.82 35.92,81.96 36.16,83.74 C36.39,85.52 38.97,85.43 40.34,85.43 C42.45,85.43 47.47,83.44 50.69,81.09 C53.76,78.85 56.6,75.32 56.6,75.32 C56.6,75.32 55.4,73.82 55.26,73.35 C55.12,72.89 54.49,71.45 54.49,71.45 Z" fill="#70853C"/>
  <path d="M35.27,55.01 A3.1 3.1 0 1 1 29.07,55.01 A3.1 3.1 0 1 1 35.27,55.01 Z" fill="#FE6014"/>
  <path d="M35.97,74.93 A3.1 3.1 0 1 1 29.77,74.93 A3.1 3.1 0 1 1 35.97,74.93 Z" fill="#FE6014"/>
  <path d="M49.49,94.74 A3.1 3.1 0 1 1 43.29,94.74 A3.1 3.1 0 1 1 49.49,94.74 Z" fill="#FE6014"/>
  <path d="M71.36,103.34 A2.88 2.83 0 1 1 65.6,103.34 A2.88 2.83 0 1 1 71.36,103.34 Z" fill="#FE6014"/>
  <path d="M89.86,107.78 A2.85 2.72 0 1 1 84.16,107.78 A2.85 2.72 0 1 1 89.86,107.78 Z" fill="#FE6014"/>
  <path d="M106.54,112.98 A2.85 2.72 0 1 1 100.84,112.98 A2.85 2.72 0 1 1 106.54,112.98 Z" fill="#FE6014"/>
  <path d="M109.1,96.05 C106.88,94.96 105.26,98.61 104.29,102.54 C103.32,106.47 102.42,109.12 104.86,109.91 C107.84,110.87 109.98,106.46 110.72,103.06 C111.46,99.66 111.13,97.04 109.1,96.05 Z" fill="#2E2E27"/>
  <path d="M92.99,88.84 C89.47,87.85 88.97,92.63 88.13,96.37 C87.25,100.31 85.03,103.79 88.2,104.75 C92.14,105.95 94.18,100.9 94.89,97.71 C95.63,94.4 96.35,89.78 92.99,88.84 Z" fill="#2E2E27"/>
  <path d="M74.83,84.34 C71.15,83.35 70.65,88.05 69.48,92.06 C68.31,96.1 67.83,99.53 70.04,100.32 C72.67,101.26 74.87,98.26 76.09,94.17 C77.32,90.08 78.64,85.35 74.83,84.34 Z" fill="#2E2E27"/>
  <path d="M49.87,92.69 C52.37,95.39 56.31,92.01 58.36,89.12 C60.33,86.35 63.89,81.73 60.75,79.36 C58.08,77.34 54.73,81.56 52.73,84.19 C50.95,86.54 47.48,90.11 49.87,92.69 Z" fill="#2E2E27"/>
  <path d="M36.26,73.66 C36.86,76.07 42.55,76.76 47.01,74.18 C50.16,72.36 53.81,69.53 52.97,66.25 C52.09,62.81 46.68,65.92 43.54,67.19 C40.39,68.45 35.23,69.53 36.26,73.66 Z" fill="#2E2E27"/>
  <path d="M52.8,48.16 C52.1,45.77 48.32,48.28 44.14,49.64 C40.41,50.86 35.27,50.63 35.55,54.52 C35.8,57.94 43.56,56.52 46.53,55.41 C50.06,54.09 53.8,51.54 52.8,48.16 Z" fill="#2E2E27"/>
  <path d="M32.789,23.98 C34.315,24.861 34.784,26.905 33.837,28.545 C32.89,30.186 30.885,30.801 29.359,29.92 C27.834,29.04 27.365,26.996 28.312,25.355 C29.259,23.715 31.264,23.099 32.789,23.98 Z" fill="#2E2E27"/>
</svg>

<svg viewBox="0 0 128 128" xmlns="http://www.w3.org/2000/svg">
  <path d="M32.6,5.38c-0.47,0.86,0.09,1.97,2.16,2.82c2.06,0.84,6.48,2.72,7.79,4.79s1.97,3.75,0.56,7.23 s1.97,4.04,1.97,4.04s3.47-4.13,1.41-10.04c-2.06-5.91-9.2-8.35-10.23-8.73C35.23,5.1,33.16,4.35,32.6,5.38z" fill="#70853C"/>
  <ellipse cx="36.52" cy="99.58" fill="#70853C" rx="5.24" ry="5.43" transform="matrix(0.7621 -0.6475 0.6475 0.7621 -55.7881 47.3415)"/>
  <ellipse cx="52.01" cy="109.29" fill="#70853C" rx="5.24" ry="5.43" transform="matrix(0.4345 -0.9007 0.9007 0.4345 -69.0267 108.6516)"/>
  <ellipse cx="72.28" cy="112.95" fill="#70853C" rx="5.24" ry="5.43" transform="matrix(0.1597 -0.9872 0.9872 0.1597 -50.7695 166.2591)"/>
  <ellipse cx="91.28" cy="116.75" fill="#70853C" rx="5.24" ry="5.43" transform="matrix(0.1597 -0.9872 0.9872 0.1597 -38.5525 188.2141)"/>
  <ellipse cx="23.8" cy="53.01" fill="#70853C" rx="5.14" ry="4.93"/>
  <ellipse cx="24.5" cy="68.36" fill="#70853C" rx="5.14" ry="4.93" transform="matrix(0.9964 -0.085 0.085 0.9964 -5.7186 2.3289)"/>
  <ellipse cx="28.16" cy="84.7" fill="#70853C" rx="5.4" ry="5.52" transform="matrix(0.9453 -0.3262 0.3262 0.9453 -26.0837 13.8162)"/>
  <path d="M55.41,73.57c6.19,10.42,25.34,10.28,43.5,16.19c11.92,3.88,19.29,13.09,17.88,21.68 s-7.47,10.8-12.67,10.56c-6.19-0.28-13.66-5.49-19.29-6.76c-5.63-1.27-27.92-3.47-33.79-5.91c-6.76-2.82-15.49-8.87-20.69-17.88 c-4.92-8.52-5.91-23.93-6.05-30.97s0.14-13.8-0.42-15.49s-10.03-1.77-11.97-10.28c-2.11-9.29,4.65-19.15,14.64-20.98 s22.52,2.96,25.9,14.5C55.83,39.78,50.7,65.65,55.41,73.57z" fill="#B7D019"/>
  <path d="M30.72,62.26c-0.64,1.52,1.18,2.65,3.75,2.86c3.38,0.28,8.47-1.06,12.34-2.53 c4.04-1.54,6.55-3.45,6.55-3.45l-0.07-4.29c0,0-2.75,2.67-9.06,4.6c-3.02,0.92-7.32,1.88-8.78,1.92 C34.01,61.41,31.24,61.04,30.72,62.26z" fill="#70853C"/>
  <path d="M45.13,4.77c-0.93,0.72-0.35,1.94,0.42,3c0.89,1.22,2.96,3.94,3.05,6.52 c0.06,1.55-0.47,5.71-1.17,6.85c-1.17,1.92,1.36,3.33,2.63,2.53c1.55-0.97,2.2-7.33,1.92-10.04c-0.47-4.69-3.14-6.9-4.08-7.84 C47.14,5.05,45.97,4.12,45.13,4.77z" fill="#70853C"/>
  <path d="M98.06,89.47c0,0,0.19,6.79-0.84,10.37c-1.17,4.08-2.63,7.27-3.38,8.78 c-0.32,0.64-0.56,1.55,0.23,2.16s2.16,0.14,2.72-0.7c0.67-1.01,2.96-4.79,3.99-9.48c1.39-6.33,0.94-9.9,0.94-9.9 s-1.36-0.56-1.88-0.7C99.33,89.85,98.06,89.47,98.06,89.47z" fill="#70853C"/>
  <path d="M81.07,85.25c0,0,0.19,5.21-0.99,9.62c-0.8,3-2.86,7.13-3.28,7.98c-0.42,0.84-1.34,2.25-0.47,3.33 c1.25,1.56,3.26-0.33,3.92-1.78c0.43-0.96,2.4-4.19,3.59-8.78c1.36-5.26,0.99-9.53,0.99-9.53L81.07,85.25z" fill="#70853C"/>
  <path d="M64.32,80.7c0,0-0.49,6.73-2.11,9.76c-2.53,4.74-5.77,7.32-6.19,7.74s-2.02,1.82-0.47,2.91 c1.27,0.89,2.82,0,3.24-0.38s5.02-3.41,7.23-9.34c1.78-4.79,1.88-9.39,1.88-9.39s-1.45-0.56-1.83-0.7 C65.68,81.17,64.32,80.7,64.32,80.7z" fill="#70853C"/>
  <path d="M54.49,71.45c0,0-3.87,4.6-6.55,6.48c-3.31,2.33-7.41,3.61-8.78,3.75c-1.36,0.14-3.24,0.28-3,2.06 c0.23,1.78,2.81,1.69,4.18,1.69c2.11,0,7.13-1.99,10.35-4.34c3.07-2.24,5.91-5.77,5.91-5.77s-1.2-1.5-1.34-1.97 C55.12,72.89,54.49,71.45,54.49,71.45z" fill="#70853C"/>
  <circle cx="32.17" cy="55.01" fill="#FE6014" r="3.1"/>
  <circle cx="32.87" cy="74.93" fill="#FE6014" r="3.1"/>
  <circle cx="46.39" cy="94.74" fill="#FE6014" r="3.1"/>
  <ellipse cx="68.48" cy="103.34" fill="#FE6014" rx="2.88" ry="2.83"/>
  <ellipse cx="87.01" cy="107.78" fill="#FE6014" rx="2.85" ry="2.72"/>
  <ellipse cx="103.69" cy="112.98" fill="#FE6014" rx="2.85" ry="2.72"/>
  <path d="M109.1,96.05c-2.22-1.09-3.84,2.56-4.81,6.49c-0.97,3.93-1.87,6.58,0.57,7.37 c2.98,0.96,5.12-3.45,5.86-6.85C111.46,99.66,111.13,97.04,109.1,96.05z" fill="#2E2E27"/>
  <path d="M92.99,88.84c-3.52-0.99-4.02,3.79-4.86,7.53c-0.88,3.94-3.1,7.42,0.07,8.38 c3.94,1.2,5.98-3.85,6.69-7.04C95.63,94.4,96.35,89.78,92.99,88.84z" fill="#2E2E27"/>
  <path d="M74.83,84.34c-3.68-0.99-4.18,3.71-5.35,7.72c-1.17,4.04-1.65,7.47,0.56,8.26 c2.63,0.94,4.83-2.06,6.05-6.15C77.32,90.08,78.64,85.35,74.83,84.34z" fill="#2E2E27"/>
  <path d="M49.87,92.69c2.5,2.7,6.44-0.68,8.49-3.57c1.97-2.77,5.53-7.39,2.39-9.76 c-2.67-2.02-6.02,2.2-8.02,4.83C50.95,86.54,47.48,90.11,49.87,92.69z" fill="#2E2E27"/>
  <path d="M36.26,73.66c0.6,2.41,6.29,3.1,10.75,0.52c3.15-1.82,6.8-4.65,5.96-7.93 c-0.88-3.44-6.29-0.33-9.43,0.94C40.39,68.45,35.23,69.53,36.26,73.66z" fill="#2E2E27"/>
  <path d="M52.8,48.16c-0.7-2.39-4.48,0.12-8.66,1.48c-3.73,1.22-8.87,0.99-8.59,4.88 c0.25,3.42,8.01,2,10.98,0.89C50.06,54.09,53.8,51.54,52.8,48.16z" fill="#2E2E27"/>
  <ellipse cx="31.08" cy="26.95" fill="#2E2E27" rx="3.43" ry="3.19" transform="matrix(0.5 -0.866 0.866 0.5 -7.8044 40.3903)"/>
</svg>
